X:803
T:Tansey's fancy
R:Jig
D:Steeleye Span
S:Mike Long
Z:Transcription, chords:Mike Long
M:6/8
L:1/8
K:G
G2|:A|\
"G"B3 "D"A3|"G"BdB BAG|BBB dcB|"D"ABA DFA|\
"G"~B3 "D"ABA|"G"GBd gdB|"D"AAA cBA|"G"GFA G2:|
|:d|\
"G"dcB "(D)"gdB|"G"GBd gdB|"C"c2c "D"ecA|"G"GBd g2c|\
"G"BBB "D"ABA|"G"GBd gdB|"D"AAA cBA|"G"GFA G2:|
